assets/symbols/mulberry/comb.svg

<svg height="850.394" viewBox="0 0 850.394 850.394" width="850.394" xmlns="http://www.w3.org/2000/svg"><path d="m368 368.25h113.386v113.386h-113.386z" fill="none"/><path d="m772.08 373.8-659.49 230.19-22.69-65.43c-35.36-101.95 70.37-166.15 282.95-239.88 212.57-73.73 343.79-84.77 379.15 17.19z" fill="#33a02c"/><g fill="none"><g stroke="#000" stroke-linecap="round" stroke-linejoin="round"><path d="m112.59 603.99-22.69-65.43c-35.36-101.95 70.37-166.15 282.95-239.88 212.57-73.73 343.79-84.77 379.15 17.19l20.08 57.93" stroke-width="19.709"/><path d="m147.41 446.18c47.68-40.45 129.99-76.64 241.93-115.459 106.29-36.86 192.23-58.05 256.03-57.28" stroke-width="13.139"/><path d="m107.93 490.82 34.8 100.34m-8.4-110.05 34.8 100.35m-10.51-108.52 34.81 100.35m-11-108.57 34.79 100.34m-10.5-108.51 34.8 100.34m-8.4-110.05 34.8 100.35m-10.5-108.51 34.8 100.35m-9.27-108.6 34.8 100.35m-10.5-108.51 34.8 100.34m-8.4-110.05 34.8 100.35m-10.5-108.52 34.8 100.35m-11-108.57 34.8 100.34m-10.51-108.51 34.8 100.34m-8.4-110.05 34.8 100.36m-10.5-108.53 34.81 100.35m-8.84-108.74 34.8 100.35m-10.5-108.52 34.8 100.35m-8.41-110.06 34.8 100.35m-10.5-108.52 34.8 100.35m-11-108.57 34.8 100.35m-10.5-108.52 34.8 100.35m-8.41-110.05 34.81 100.35m-10.5-108.52 34.8 100.35m-10.73-109.88 34.8 100.36m-10.5-108.53 34.8 100.36" stroke-width="19.709"/></g><path d="m0 0h850.394v850.394h-850.394z"/></g></svg>

<svg xmlns="http://www.w3.org/2000/svg" width="850.394" height="850.394" viewBox="0 0 850.394 850.394" overflow="visible"><path fill="none" d="M368 368.25h113.386v113.386H368z"/><path d="M772.08 373.8L112.59 603.99 89.9 538.56c-35.36-101.95 70.37-166.15 282.95-239.88 212.57-73.73 343.79-84.77 379.15 17.19l20.08 57.93z" fill="#33a02c"/><g fill="none" stroke="#000" stroke-linecap="round" stroke-linejoin="round"><path d="M112.59 603.99L89.9 538.56c-35.36-101.95 70.37-166.15 282.95-239.88 212.57-73.73 343.79-84.77 379.15 17.19l20.08 57.93" stroke-width="19.709"/><path d="M147.41 446.18c47.68-40.45 129.99-76.64 241.93-115.459 106.29-36.86 192.23-58.05 256.03-57.28" stroke-width="13.139"/><path stroke-width="19.709" d="M107.93 490.82l34.8 100.34M134.33 481.11l34.8 100.35M158.62 472.94l34.81 100.35M182.43 464.72l34.79 100.34M206.72 456.55l34.8 100.34M233.12 446.84l34.8 100.35M257.42 438.68l34.8 100.35M282.95 430.43l34.8 100.35M307.25 422.27l34.8 100.34M333.65 412.56l34.8 100.35M357.95 404.39l34.8 100.35M381.75 396.17l34.8 100.34M406.04 388l34.8 100.34M432.44 378.29l34.8 100.36M456.74 370.12l34.81 100.35M482.71 361.73l34.8 100.35M507.01 353.56l34.8 100.35M533.4 343.85l34.8 100.35M557.7 335.68l34.8 100.35M581.5 327.46l34.8 100.35M605.8 319.29l34.8 100.35M632.19 309.59L667 409.94M656.5 301.42l34.8 100.35M680.57 291.89l34.8 100.36M704.87 283.72l34.8 100.36"/></g><path fill="none" d="M0 0h850.394v850.394H0z"/></svg>
